X:546
T: HEILE HEILE HEILE
N: E1827
O: Europa, Mitteleuropa, Deutschland, Erfurt, Stotternheim
R: Kinder - Lied, Trost
M: 2/4
L: 1/8
K: G
 | dcBA | G2D
D | GGAA | BBA
A | BBAA | BBA
c | BGAA | G2z2

@@@ Tune index: 5230
